static/stackoverflow.svg

<svg fill="#FFF" xmlns="http://www.w3.org/2000/svg" viewBox="0 0 24 24"><path d="M19 21.9v-6.4h2.1V24H1.8v-8.5H4v6.4h15zM6.1 19.7h10.7v-2.1H6.1v2.1zm.3-4.8l10.5 2.2.5-2.1-10.6-2.2-.4 2.1zm1.3-5.1l9.7 4.5.9-1.9-9.7-4.5-.9 1.9zM10.4 5l8.2 6.9 1.4-1.6-8.2-6.9L10.4 5c.1 0 0 0 0 0zm5.4-5L14 1.3l6.4 8.6 1.7-1.3L15.8 0c-.1 0 0 0 0 0z"/></svg>

<svg fill="#FFFFFF" version="1.1" xmlns="http://www.w3.org/2000/svg" x="0" y="0" viewBox="0 0 24 24" style="enable-background:new 0 0 24 24;" xml:space="preserve">
<path d="M19,21.9v-6.4h2.1V24H1.8v-8.5H4v6.4H19z M6.1,19.7h10.7v-2.1H6.1C6.1,17.6,6.1,19.7,6.1,19.7z M6.4,14.9
	l10.5,2.2l0.5-2.1L6.8,12.8C6.8,12.8,6.4,14.9,6.4,14.9z M7.7,9.8l9.7,4.5l0.9-1.9L8.6,7.9L7.7,9.8C7.7,9.8,7.7,9.8,7.7,9.8z
	 M10.4,5l8.2,6.9l1.4-1.6l-8.2-6.9L10.4,5C10.5,5,10.4,5,10.4,5z M15.8,0L14,1.3l6.4,8.6l1.7-1.3L15.8,0C15.7,0,15.8,0,15.8,0z"/>
</svg>
